X: 26
T: No_11_Song_in_Honor_of_the_Drum.krn
N: Derived from No_11_Song_in_Honor_of_the_Drum.krn
%%abc-version 2.0
%%abcx-abcm2ps-target-version 5.9.1 (29 Sep 2008)
%%abc-creator hum2abc beta
%%abcx-conversion-date 2019/03/15 08:35:44
%%humdrum-veritas 1654537915
%%humdrum-veritas-data 2235705036
%%linebreak <none>
%%barnumbers 0
L: 1/8
M: 2/4
K: B clef=bass
[K:clef=bass][M:2/4]CC CC ||  
[M:3/4]C2CC CB, | 
B,2B,B, G,F, | 
F,2F,F, F, z ||  
[M:2/4]CC CB, ||  
[M:3/4]B,2B,B, B,G, | 
G,2G,G, G,F, | 
F,2F,F, F,D, | 
F,F, F, z B,G, | 
F,2F,F, F,D, | 
C,2C,C,/ z/ C,C, | 
B,,2B,,B,, G,,F,, ||  
[M:2/4]F,,2z2 | 
C,C, C,C, ||  
[M:3/4]B,,4G,,F,, | 
F,,4z2 |]  



